crixton/img/partnership-bg4.svg

<?xml version="1.0" encoding="UTF-8"?>
<svg width="1045px" height="568px" viewBox="0 0 1045 568" version="1.1" xmlns="http://www.w3.org/2000/svg" xmlns:xlink="http://www.w3.org/1999/xlink">
    <!-- Generator: Sketch 56.2 (81672) - https://sketch.com -->
    <title>Shape_8@1x</title>
    <desc>Created with Sketch.</desc>
    <defs>
        <linearGradient x1="38.0803265%" y1="34.9109456%" x2="67.7343266%" y2="66.8192794%" id="linearGradient-1">
            <stop stop-color="#000000" offset="0%"></stop>
            <stop stop-color="#050505" offset="23%"></stop>
            <stop stop-color="#131313" offset="49%"></stop>
            <stop stop-color="#292929" offset="77%"></stop>
            <stop stop-color="#424242" offset="100%"></stop>
        </linearGradient>
    </defs>
    <g id="Web" stroke="none" stroke-width="1" fill="none" fill-rule="evenodd" opacity="0.5">
        <g id="Home_Page" transform="translate(0.000000, -4043.000000)" fill="url(#linearGradient-1)" fill-rule="nonzero">
            <g id="CONCLUSION" transform="translate(0.000000, 4043.000000)">
                <g id="BKG">
                    <g id="BKG7" transform="translate(-380.000000, -314.000000)">
                        <path d="M291.008085,400.273369 C364.274299,275.958959 471.437597,253.967148 601.731368,258.58454 C713.153986,262.550762 833.923445,292.948595 936.206273,251.244071 C1038.4891,209.539546 1108.23546,133.61896 1218.74114,139.301905 C1366.90039,146.908762 1432.03249,265.214642 1424.40121,380.531057 C1413.84164,540.363869 1275.97575,620.280275 1138.19859,610.15753 C1024.17305,601.72191 903.433175,590.237626 802.510962,663.257542 C709.574975,730.47612 648.110626,878.765451 517.964749,881.962107 C370.397071,885.573145 155.50848,630.432619 291.008085,400.273369 Z" id="Shape_8" style="mix-blend-mode: color-dodge;"></path>
                    </g>
                </g>
            </g>
        </g>
    </g>
</svg>

<svg width="1045" height="568" viewBox="0 0 1045 568" xmlns="http://www.w3.org/2000/svg"><defs><linearGradient x1="38.08%" y1="34.911%" x2="67.734%" y2="66.819%" id="a"><stop offset="0%"/><stop stop-color="#050505" offset="23%"/><stop stop-color="#131313" offset="49%"/><stop stop-color="#292929" offset="77%"/><stop stop-color="#424242" offset="100%"/></linearGradient></defs><path d="M291.008 400.273c73.266-124.314 180.43-146.306 310.723-141.688 111.423 3.966 232.192 34.364 334.475-7.34 102.283-41.705 172.03-117.626 282.535-111.943 148.16 7.607 213.291 125.913 205.66 241.23-10.56 159.832-148.425 239.748-286.202 229.626-114.026-8.436-234.766-19.92-335.688 53.1-92.936 67.218-154.4 215.507-284.546 218.704-147.568 3.611-362.457-251.53-226.957-481.689z" style="mix-blend-mode:color-dodge" transform="translate(-380 -314)" fill="url(#a)" fill-rule="nonzero" opacity=".5"/></svg>
